X: 24
T:Through the long Mure. JMP.024
M:6/8
L:1/8
Q:120
C:"25"
S:John Miller MS. Perth, 1799.(for the fife)
R:jig
O:Scotland
A:Perth
H:1799
Z:vmp.C. Graebe
K:G Major
Bee e2d | ege dBG | Bee e2d | BAG E3 |!
 Bee e2d | ege dBG | Bee e2d | BAG E3 :|!
|:d | BGG GAG | BAG ABd | BGG GAG | BAG E2 d |!
 BGG GAG | BAG ABd | Bee e2d | BAG E3 :|]
